!!!OTL: Liebeslied
!!!ARE: Europa, Mitteleuropa, Deutschland
!!!SCT: A0220C
!!!YEM: Copyright 1995, estate of Helmut Schaffrath.
**kern
*ICvox
*Ivox
*M4/2
*k[f#]
*e:
{1e
1a
=1
2gn
1fn
2e
=2
1dn
1e}
=3
{1b
1ccn
=4
2ccn
1b
2b
=5
0a}
=6
{1e
1a
=7
2gn
1fn
2e
=8
1dn
1e}
=9
{1b
1ccn
=10
2ccn
1b
2b
=11
1a
2r}
{2ccn
=12
2b
2a
2a
2b
=13
1ccn
2ccn}
{2gn
=14
2a
2gn
2a
2fn
=15
0e}
=16
{2e
2ccn
1b
=17
2ddn
1ccn
2b
=18
1a
1b}
=19
{1e
1fn
=20
2e
1dn
2dn
=21
0e}
==
!!!AGN: Romanze, Ballade, Lied
!! Herm. Schein, in Scheins Gesangbuch 1627
!!!ONB: ESAC (Essen Associative Code) Database: ALTDEU
!!!AMT: simple quadruple
!!!AIN: vox
!!!EED: Helmut Schaffrath
!!!EEV: 1.0
*-
